X:2943
T: Chetvorno Shopsko Horo
Z: John Chambers <jc@eddie.mit.edu> http://eddie.mit.edu/~jc/music/
M: 7/8
L: 1/8
K: D
|: "D"~f2A fA aA | "G"~g2A gf ed \
| "A"~e2A eA gA | "D"fef dA de \
| "D"~f2A fA aA | "G"bag "E"gb fd |
| "A"~e2A eA aA |1 "A"~e2A ba ag :|2 "Em"~e3 ~e4 :| \
|: "G"([af][b2g]) [b2g] [a2f] | ([af][g2d]) [g2d] [a2f] \
| [a3f] [b2g] [a2f] | ([a2f][gd]) [g4d] :|
|: "D"f3 f2 a2 | "G"g3 g2 f2 \
| "A"e3 e2 g2 | "D"f2e d4 \
| "G"g3 "D"a2 "G"b2 | "A"a2g g2 f2 \
| "Am"a3 e4 | "Em"e3 e4 :|


